X:172
T: Fenstergang (2-74) S. 223
N: P0947
O: Lothringen
S: PINCK, Louis: Verklingende Weisen, Bd 2, Metz 1928]
R: Fenstergang]
M: 6/8
L: 1/16
K: F
F2 | F2F2FFF2G2A2 | G4z6
G2 | G4G2G2A2B2 | A4z6
c2 | c4A2F4c2 | c4A2F2A2c2 | d4B2G4
F2 | E4G2c2c2B2 | A4z6
F2 | F4F2F2G2A2 | G4z6
G2 | G4G2G2A2B2 | A4z6
c2 | c2c2A2F2A2c2 | d4B2G4
F2 | E4G2c4B2 | A4z6

@@@ Tune index: 7722
